X: 8595
T: Cronin's
R: reel
M: 4/4
K: Gmajor
~F3G Ac~c2|fgaf gfdc|dfcf ~d3=B|cAFG AG~G2|
~F3G Ac~c2|fgaf gfdc|dfcf ~d3f|1 cAGc AFFE:|2 cAGc AF~F2||
|:~c3d cA~A2|BAGB AFFc|dfcf ~d3=B|cAFG AG~G2|
~c3d cA~A2|BAGB AFFc|dfcf ~d3f|1 cAGc AF~F2:|2 cAGc AFFE||
~G3A Bd~d2|gabg aged|egdg ege^c|dBGA BAAB|
~G3A Bd~d2|gabg aged|egdg egbg|1 aged egg2:|2 aged egge||
|:~d3e dB~B2|cBAc BGGd|egdg ege^c|dBGA BAAB|
~d3e dB~B2|cBAc BGGd|egdg egbg|1 aged egge:|2 aged egg2||

